X: 20693
T: SLOW AIR
%R: air
B: W. Hamilton "Universal Tune-Book" Vol. 2 Glasgow 1846 p.69 #3
S: http://s3-eu-west-1.amazonaws.com/itma.dl.printmaterial/book_pdfs/hamiltonvol2web.pdf
Z: 2016 John Chambers <jc:trillian.mit.edu>
M: 3/4
L: 1/4
K: G
% - - - - - - - - - - - - - - - - - - - - - - - - -
D |\
(GF)E | (DF)G | (AB)(c/A/) | (^AB)B |\
(ed)^c | (dG)A | (Be)^d | e2=d |\
g2B | e2A | (Bc)A | B2d |\
(gf)e | (dg)B | (Ac)F | G2 |]
% - - - - - - - - - - - - - - - - - - - - - - - - -

%%sep 1 1 500
%%sep 1 1 500

